X:1
T:Title
%%score [ 1 2 3 4 ]
L:1/8
Q:1/4=120
M:none
K:Eb
V:1 treble nm="S."
V:2 treble nm="A."
V:3 treble-8 nm="T."
V:4 bass nm="B."
V:1
!p!"^Andante" E2 GB | (B2 A>)"^Lisa Lân"F DF | E3 z | E2"^Welsh folk song \narr. Gustav Holst" GB | %4
w: Bûm yn dy|gar- u, do law- er|gwaith,|Mewn llaw- er|
w: Pan fydd- wy'n|rho * dio yn yr|ardd|Ym- ysg yr|
 _d2 e2 d/c/B/A/ | B3 z | E2 GB | _d2 e2 d/c/B/A/ | B>c _d/c/B/A/ BB | BA/G/ F2 EF | E3 z | z4 | %12
w: modd a mwyn * der *|maith;|Bûm yn dy|gusanu do, Li * sa *|gêl, * * * Yr * oedd dy|gwm * * ni'n well na'r|mêl.||
w: holl flo deu * au *|hardd;|Wrth dor\-ri o'r|mwyn fri- all * u *|mân * * * Daw * hir- aeth|dwys * * am Li- sa|lân.||
 (C6- | CDEF | GABc | c2 B2 c_d | e4- | e3) z |"^cresc." (f4 g2) | (a4!f! (g2-) | %20
w: Ah||||||Ah *||
w: ||||||||
 g!>(!c- c3 d!>)! | e4- | e z) z2 z2 |!p! E2 GB | B2 A>F DF | E3 z | E2 GB | _d2 e2 d/c/B/A/ | %28
w: |||Pan fydd- wy'n|rho * dio gy- da'r|dydd,|Fy ngha- lon|fach a aiff * yn *|
w: |||O Li- sa,|ddoi * di~i'm dan- fon|i|A rhoi fy|nghorff mewn dae * ar *|
 B3 z | E2 GB | _d2 e2 d/c/B/A/ | B>c _d/c/B/A/ BB | BA/G/ F2 EF | E4- | !fermata!E4 | %35
w: brudd,|Wrth gly- wed|sn yr a * dar *|mân * * * Daw * hir- aeth|dwys * * am Li- sa|lân.||
w: ddu?|Go- beith- io|doi di,fy an * nwyl *|ffrind, * * * Hyd * lan y|bedd * * lle 'rwyf yn|mynd.||
V:2
!p! E4- | E4 D2- | D2 (C2- | C2 (B,B)) | (A6 | (E2 F)G | A2 G2 | F2 E2 F_D | (E2 (F2) E2 | %9
w: Ah|||||||||
 _D2 C2 B,2 | A,3 z | z4 | C6- | C3 D | E2 DE | F2 G2 F2 | G4- | G3) z |"^cresc." (A4 Bc | %19
w: |||Ah||||||Ah * *|
 _d>c B/A/G/F/ E2-) | E6 |!mf! A2 C2- |!>(! C4!p! D2-!>)! | D4 | E4 D2- | D2 (C2- | C2 B,B)) | %27
w: ||||||||
 (A6 | E2 F)G | A2 G2 | F2 E2 F_D | (E2 (F2) E2 | _D2 C2 B,2 | A,4) | !fermata!G,4 | %35
w: ||||||||
V:3
!p! (e2 d2 | c4 (B2-) | B2 c2- | cd e2 | _d6 | e4- | e2) d2 | _dc B2 A2 | (G2 (A2) G2 | F2 E3 D | %10
w: Ah *||||||||||
w: ||||||||||
 C3 z | E2 GB | B2 A>F DF | E3 z | E2 GB | _d2 e2 d/c/B/A/ | B3 z |"^cresc." E2 GB | %18
w: |Fy ngha- lon|lawn, * fy nghow- lad|glyd,|Ty- di yw'r|lan- a' sy'n * y *|byd;|Ty- di sy'n|
w: |Pan fydd- wy'n|rho * dio gy- da'r|hwyr|Fy ngha- lon|fach a dôdd * fel *|cyr.|Wrth gly- wed|
 _d2 e2 d/c/B/A/ |!f! B>c _d/c/B/A/ BB | BA/G/ F2 EF | E4- | E z z2 z2 |!p! e2 d2 | c4 B2- | %25
w: per- i poen * a *|chri, * * * A * thi sy'n|dwyn * * fy my- wyd|i.||||
w: sn y tan * nau *|mân, * * * Daw * hir- aeth|dwys * * am Li- sa|lân.||||
 B2 c2- | cd e2 | _d6 | e4- | e2) d2 | _dc B2 A2 | (G2 (A2) G2 | F2 E3 D) | C3 D | !fermata!E4 | %35
w: ||||||||||
w: ||||||||||
V:4
 z4 | z4!p! (B,2- | B,2 A,2- | A,2 G,2 | F,6 | G,2 A,)B, | C2 B,2 | A,3 G, F,2 | %8
w: |Ah|||||||
"^This edition  Andrew Sims 2012" (E,2 (_D,2) C,2 | B,,2 A,,2 G,,2 | F,,4- | F,,4 | F,, z z2 z2 | %13
w: |||||
 z4 | z4 | z6 | z G,,B,,C,) |"^cresc." E,4- | E,6 | E,4 D,2 | C,6- | C,4 | C, z z2 z2 | z4 | %24
w: |||Ah * *|Ah|||||||
 z4!p! (B,2- | B,2 A,2- | A,2 G,2 | F,6 | G,2 A,)B, | C2 B,2 | A,3 G, F,2 | (E,2 (_D,2) C,2 | %32
w: ||||||||
 B,,2 A,,2 G,,2 | F,,4) | !fermata!E,,4 | %35
w: |||

